<?xml version="1.0" encoding="UTF-8"?>
<map version="1.10" tiledversion="1.12.2" orientation="orthogonal" renderorder="right-down" width="30" height="20" tilewidth="16" tileheight="16" infinite="0" nextlayerid="7" nextobjectid="1">
 <editorsettings>
  <export target="mapa.lua" format="lua"/>
 </editorsettings>
 <tileset firstgid="1" name="Tileset" tilewidth="32" tileheight="32" tilecount="96" columns="12">
  <image source="Tileset.png" width="384" height="256"/>
 </tileset>
 <layer id="1" name="piso" width="30" height="20">
  <data encoding="csv">
73,73,65,65,65,65,65,65,65,65,65,65,65,65,65,65,65,65,65,65,65,65,65,65,65,65,65,65,73,73,
73,73,65,1073741895,1073741895,1073741827,1073741827,1073741827,1073741827,1073741827,1073741827,1073741827,1073741827,1073741827,1073741827,1073741827,1073741827,1073741827,1073741827,1073741827,1073741827,1073741827,1073741827,1073741827,1073741827,1073741827,65,65,65,73,
73,65,1073741896,4,4,4,4,4,4,4,4,4,4,4,4,4,4,4,4,4,4,4,4,4,4,4,1073741847,1073741896,65,65,
65,65,4,4,4,4,4,4,4,4,4,4,4,4,4,4,4,4,4,4,4,4,4,4,4,4,4,4,65,65,
65,65,4,4,4,4,4,4,4,4,4,4,4,4,4,4,4,4,4,4,4,4,4,4,4,4,4,4,65,65,
65,65,4,4,4,4,4,4,4,4,4,4,4,4,4,4,4,4,4,4,4,4,4,4,4,4,4,4,65,65,
65,65,4,4,4,4,4,4,4,4,4,4,4,4,4,4,4,4,4,4,4,4,4,4,4,4,4,4,65,65,
65,65,4,4,4,4,4,4,4,4,4,4,4,4,4,4,4,4,4,4,4,4,4,4,4,4,4,4,65,65,
65,65,4,4,4,4,4,4,4,4,4,4,4,4,4,4,4,4,4,4,4,4,4,4,4,4,4,4,65,65,
65,65,4,4,4,4,4,4,4,4,4,4,4,4,4,4,4,4,4,4,4,4,4,4,4,4,4,4,65,65,
65,65,4,4,4,4,4,4,4,4,4,4,4,4,4,4,4,4,4,4,4,4,4,4,4,4,4,4,65,65,
65,65,4,4,4,4,4,4,4,4,4,4,4,4,4,4,4,4,4,4,4,4,4,4,4,4,4,4,65,65,
65,65,4,4,4,4,4,4,4,4,4,4,4,4,4,4,4,4,4,4,4,4,4,4,4,4,4,4,65,65,
65,65,4,4,4,4,4,4,4,4,4,4,4,4,4,4,4,4,4,4,4,4,4,4,4,4,4,4,65,65,
65,65,4,4,4,4,4,4,4,4,4,4,4,4,4,4,4,4,4,4,4,4,4,4,4,4,4,1610612757,65,65,
65,65,4,4,4,4,4,4,4,4,4,4,4,4,4,4,4,4,4,4,4,4,4,4,4,4,4,1610612757,65,65,
65,65,2684354632,4,4,4,4,4,4,4,4,4,4,4,4,4,4,4,4,4,4,4,4,4,4,4,4,1610612757,65,65,
65,65,2684354632,4,4,4,4,4,4,4,4,4,4,4,4,4,4,4,4,4,4,4,4,4,4,4,71,65,65,65,
73,65,65,3,3,3,3,3,3,3,3,3,3,3,3,3,3,3,3,3,3,3,32,4,31,3,65,65,65,73,
73,73,65,65,65,65,65,65,65,65,65,65,65,65,65,65,65,65,65,65,65,65,65,65,65,65,65,65,73,73
</data>
 </layer>
</map>
